X:1
T:Title
%%score { ( 1 3 ) | ( 2 4 ) }
L:1/8
Q:1/4=100
M:4/4
K:Ab
V:1 treble nm="Grand Piano"
V:3 treble 
V:2 bass 
V:4 bass 
V:1
 [Ec]3 [Ec] [Ec]2 [EB]2 | [FA]3 [DF] [DF]4 | [EF]2 [=DF]2 [EG]2 [EA]2 | [EB]2 [Ec]2 [EB]4 | %4
w: W.~H.~Doane * * *||||
 [Ec]3 [Ec] [Ec]2 [EB]2 | [A,FA]3 [A,DF] [DFB]4 | z4 z2 F2 | z2 B2 z4 | [=Ec]3 [EG] [GB]>A A2 | %9
w: |||||
 e3 [EGB] [EBd]>[EAc] [EAc]2 | [=EGc]2 [CEG][CGB] [CFB][CFA][B,DG][A,CF] | =E4- [Ec]4 | %12
w: |||
 [Ec]3 [Ec] [Ec]2 [EB]2 | [A,FA]3 [A,DF] [DFB]4 | z4 z2 F2 | z2 B2 z4 |] %16
w: ||||
V:2
 [A,,A,]3 [A,,A,] [A,,A,]2 [C,A,]2 | [D,A,]3 [D,A,] [D,A,]4 | [C,=A,]2 [B,,B,]2 [E,B,]2 [C,_A,]2 | %3
 [B,,G,]2 [A,,A,]2 [E,G,]4 | [A,,A,]3 [A,,A,] [A,,A,]2 [C,A,]2 | D,3 D, B,,4 | %6
 E,2 =E,2 F,2 [D,A,]2 | [E,A,E]2 .[E,G,E]2 [A,,A,]4 | [C,G,]3 [C,C] [F,C]>[F,CF] [F,CF]2 | %9
 [G,B,E]3 E, A,>A, A,2 | C,2 C,=E, F,F,F,F, | z4 G,4 | [A,,A,]3 [A,,A,] [A,,A,]2 [C,A,]2 | %13
 D,3 D, B,,4 | E,2 =E,2 F,2 [D,A,]2 | [E,A,E]2 .[E,G,E]2 [A,,A,]4 |] %16
V:3
 x8 | x8 | x8 | x8 | x8 | x8 | [B,EG]2 [B,DG]2 [A,CA]2 (3Bcd | c2 z D [CA]4 | x8 | x8 | x8 | %11
 [CG]4 z4 | x8 | x8 | [B,EG]2 [B,DG]2 [A,CA]2 (3Bcd | c2 z D [CA]4 |] %16
V:4
 x8 | x8 | x8 | x8 | x8 | x8 | x8 | x8 | x8 | x8 | x8 | C,8 | x8 | x8 | x8 | x8 |] %16

